X: 8143
T: Cook In The Kitchen, The
R: jig
M: 6/8
K: Cmajor
|:E|DGG GAG|FDE {G}FDC|DGG ABc|dgg ^fdc|
{c}BAB G^FG|FDE F2 d|{d} cAG ^FGA|BGG G2:|
|:A|{D}G2 g def|{d}cAF FGA|{D}G2 g def|~edc de^f|
{a}g^fg BAB|~A2 G FGA|{c}BAB {d}cA^F|GAG G2:|
"Var A3& A4" {c} BAB {e}cBc|def gdc|"Var B4 & B5" efc de^f|~a3 B2 G|

